Numix-Light/16/status/clementine-panel.svg

<?xml version="1.0" encoding="UTF-8" standalone="no"?>
<svg
   xmlns:dc="http://purl.org/dc/elements/1.1/"
   xmlns:cc="http://creativecommons.org/ns#"
   xmlns:rdf="http://www.w3.org/1999/02/22-rdf-syntax-ns#"
   xmlns:svg="http://www.w3.org/2000/svg"
   xmlns="http://www.w3.org/2000/svg"
   xmlns:sodipodi="http://sodipodi.sourceforge.net/DTD/sodipodi-0.dtd"
   xmlns:inkscape="http://www.inkscape.org/namespaces/inkscape"
   version="1.2"
   width="16"
   height="16"
   id="svg2"
   inkscape:version="0.91 r"
   sodipodi:docname="clementine-100-playing.svg">
  <metadata
     id="metadata41">
    <rdf:RDF>
      <cc:Work
         rdf:about="">
        <dc:format>image/svg+xml</dc:format>
        <dc:type
           rdf:resource="http://purl.org/dc/dcmitype/StillImage" />
        <dc:title>Clementine Music Player Logo</dc:title>
      </cc:Work>
    </rdf:RDF>
  </metadata>
  <sodipodi:namedview
     pagecolor="#ffffff"
     bordercolor="#666666"
     borderopacity="1"
     objecttolerance="10"
     gridtolerance="10"
     guidetolerance="10"
     inkscape:pageopacity="0"
     inkscape:pageshadow="2"
     inkscape:window-width="1920"
     inkscape:window-height="1056"
     id="namedview39"
     showgrid="false"
     inkscape:zoom="10.429825"
     inkscape:cx="-22.191636"
     inkscape:cy="11.391632"
     inkscape:window-x="0"
     inkscape:window-y="24"
     inkscape:window-maximized="1"
     inkscape:current-layer="svg2" />
  <title
     id="title4">Clementine Music Player Logo</title>
  <defs
     id="defs6" />
  <path
     style="fill:#353535;fill-opacity:1"
     inkscape:connector-curvature="0"
     id="path20"
     d="m 4.2079483,2.8419806 c -0.024411,0.0016 -0.051151,0.00452 -0.075198,0.00834 -0.022833,0.00366 -0.04437,0.010981 -0.066842,0.016699 -0.00268,8e-4 -0.00569,-8e-4 -0.00834,0 -0.025079,0.00668 -0.050977,0.015844 -0.075198,0.025035 C 3.5023991,3.0523756 2.8028872,3.6661833 2.5703208,4.1945447 2.4704528,4.4115069 2.3852206,4.6527717 2.3113062,4.9459839 2.1742737,5.4886367 2.136489,6.2137856 2.2444633,7.0667126 c 0.088179,0.7200002 0.2904547,1.5605757 0.6851354,2.4630515 0.245074,0.6526419 0.7343156,1.4557929 1.6459963,2.2543179 0.1070682,0.07932 0.2110003,0.154771 0.3175017,0.225431 0.8564367,0.568168 1.6237751,0.820126 2.2225126,0.918426 0.9817215,0.219036 1.8633653,0.262719 2.6152131,0.217082 0.8936456,-0.05111 1.6375836,-0.223112 2.1723786,-0.467562 0.225105,-0.122189 0.523043,-0.304372 0.685136,-0.450863 0.477523,-0.431555 0.855054,-0.807502 1.061124,-1.135509 0.0083,-0.01149 0.01738,-0.0218 0.02506,-0.0334 0.02297,-0.03849 0.04073,-0.07133 0.05849,-0.108541 0.0087,-0.01748 0.01764,-0.03238 0.02506,-0.05009 0.01305,-0.03127 0.02444,-0.06148 0.03342,-0.09184 0.0024,-0.01814 0.0063,-0.01919 0.0083,-0.0334 0.0027,-0.01058 0.0063,-0.02292 0.0083,-0.0334 0.0037,-0.02361 0.0063,-0.06454 0.0083,-0.07514 0.004,-0.01985 -1.95e-4,-0.01662 0,-0.0167 -1.81e-4,-1.21e-4 0.0011,-0.0048 0,-0.02503 -0.0013,-0.02065 -2.19e-4,-0.05673 0,-0.133589 -0.0064,-0.05135 -0.01807,-0.107475 -0.03342,-0.158637 C 13.752283,10.230192 13.705848,10.1309 13.641043,10.030743 13.51501,9.8359377 13.329452,9.6439146 13.089592,9.4546398 12.64482,9.1037411 12.021246,8.7645929 11.2932,8.4360222 10.673256,8.1556879 9.9917434,7.8998648 9.3297034,7.6177878 8.8673776,7.3925662 8.5024309,7.2741953 8.3688397,7.1669179 8.3522361,7.1535855 8.3447525,7.1385004 8.3354215,7.125171 8.2143474,7.1014992 8.0213657,6.7746545 7.6837041,6.3653827 7.2939429,5.8383706 6.921959,5.2808574 6.5473817,4.7706615 6.1096704,4.1729299 5.686734,3.668628 5.2857299,3.3262281 5.0692404,3.1414101 4.8603416,3.0059908 4.6590816,2.9254605 4.5555265,2.8840185 4.4569312,2.852251 4.3582904,2.8419673 c -0.049969,-0.00532 -0.1018412,-0.00324 -0.1503956,0 z" />
  <text
     style="font-size:2.94001746px;font-family:'Bitstream Vera Sans'"
     id="text37"
     font-size="8"
     transform="scale(1.0003583,0.99964181)"
     y="10.623725"
     x="20.678432" />
</svg>

<svg xmlns="http://www.w3.org/2000/svg" viewBox="0 0 16 16">
 <path d="m 4.208 2.842 c -0.024 0.002 -0.051 0.005 -0.075 0.008 -0.023 0.004 -0.044 0.011 -0.067 0.017 -0.003 0.001 -0.006 -0.001 -0.008 0 -0.025 0.007 -0.051 0.016 -0.075 0.025 c -0.48 0.16 -1.179 0.774 -1.412 1.302 -0.1 0.217 -0.185 0.458 -0.259 0.751 -0.137 0.543 -0.175 1.268 -0.067 2.121 c 0.088 0.72 0.29 1.561 0.685 2.463 0.245 0.653 0.734 1.456 1.646 2.254 0.107 0.079 0.211 0.155 0.318 0.225 0.856 0.568 1.624 0.82 2.223 0.918 0.982 0.219 1.863 0.263 2.615 0.217 0.894 -0.051 1.638 -0.223 2.172 -0.468 0.225 -0.122 0.523 -0.304 0.685 -0.451 0.478 -0.432 0.855 -0.808 1.061 -1.136 0.008 -0.011 0.017 -0.022 0.025 -0.033 0.023 -0.038 0.041 -0.071 0.058 -0.109 0.009 -0.017 0.018 -0.032 0.025 -0.05 0.013 -0.031 0.024 -0.061 0.033 -0.092 0.002 -0.018 0.006 -0.019 0.008 -0.033 0.003 -0.011 0.006 -0.023 0.008 -0.033 0.004 -0.024 0.006 -0.065 0.008 -0.075 0.004 -0.02 0 -0.017 0 -0.017 0 0 0.001 -0.005 0 -0.025 -0.001 -0.021 0 -0.057 0 -0.134 -0.006 -0.051 -0.018 -0.107 -0.033 -0.159 c -0.031 -0.101 -0.077 -0.2 -0.142 -0.301 -0.126 -0.195 -0.312 -0.387 -0.551 -0.576 -0.445 -0.351 -1.068 -0.69 -1.796 -1.019 -0.62 -0.28 -1.301 -0.536 -1.963 -0.818 -0.462 -0.225 -0.827 -0.344 -0.961 -0.451 -0.017 -0.013 -0.024 -0.028 -0.033 -0.042 -0.121 -0.024 -0.314 -0.351 -0.652 -0.76 -0.39 -0.527 -0.762 -1.085 -1.136 -1.595 -0.438 -0.598 -0.861 -1.102 -1.262 -1.444 -0.216 -0.185 -0.425 -0.32 -0.627 -0.401 -0.104 -0.041 -0.202 -0.073 -0.301 -0.083 c -0.05 -0.005 -0.102 -0.003 -0.15 0 z" style="fill:#353535;fill-opacity:1"/>
 <text transform="scale(1.0003583,0.99964181)" y="10.624" x="20.678" style="font-size:2.94;font-family:&apos;Bitstream Vera Sans&apos;"/>
</svg>
